X:1
T: To Cashell I'm going
C:
R:Jig
Q:180
K:D
M:6/8
L:1/16
|:ag|f2e2f2 d2e2d2|=c2A2B2 c4d2|=c2A2G2 F2G2A2|A2d2d2 d2a2g2|
f2e2f2 d2e2d2|=c2A2B2 c4d2|=c2A2G2 F2G2A2|A2d2d2 d4:|
|:d2|d2f2g2 a2f2d2|d2f2g2 a4a2|f2g2f2 g2e2d2|=c2d2e2 e2a2g2|
f2e2f2 d2e2d2|=c2A2B2 c4d2|=c2A2G2 F2G2A2|A2d2d2 d4:|
|:d2|d2f2g2 a2f2d2|d2f2g2 a4a2|b2g2g2 a2f2f2|g2f2g2 g4ag|
f2e2f2 d2e2d2|=c2A2B2 c4d2|=c2A2G2 F2G2A2|A2d2d2 d4:|
